src/svg/refresh-slash.svg

<svg width="32" height="32" viewBox="0 0 32 32" xmlns="http://www.w3.org/2000/svg">
<path fill-rule="evenodd" clip-rule="evenodd" d="M18.2124 6.24887C16.5648 5.87608 14.8497 5.92674 13.2269 6.39611C11.6094 6.86399 10.1363 7.73272 8.9441 8.92165L6 11.6881V8C6 7.44772 5.55228 7 5 7C4.44772 7 4 7.44772 4 8V14C4 14.5523 4.44772 15 5 15H11C11.5523 15 12 14.5523 12 14C12 13.4477 11.5523 13 11 13H7.5245L10.3248 10.3687C10.3324 10.3616 10.3399 10.3543 10.3473 10.3469C11.3026 9.39107 12.4845 8.69284 13.7827 8.31735C15.0808 7.94185 16.453 7.90133 17.771 8.19956C18.8523 8.4442 19.8682 8.91025 20.756 9.56541L22.1829 8.13846C21.018 7.22337 19.6622 6.57689 18.2124 6.24887ZM23.3589 9.22524L21.9432 10.6409C21.9434 10.6412 21.9437 10.6415 21.9439 10.6418L10.6422 21.9435C10.6419 21.9432 10.6417 21.943 10.6414 21.9427L9.22562 23.3585C9.22589 23.3587 9.22616 23.359 9.22644 23.3593L8.28706 24.2986C7.89654 24.6892 7.89654 25.3223 8.28706 25.7128C8.67759 26.1034 9.31075 26.1034 9.70128 25.7128L10.8446 24.5696C11.7531 25.1154 12.7461 25.5154 13.7876 25.751C15.4352 26.1238 17.1503 26.0732 18.7731 25.6038C20.3906 25.1359 21.8637 24.2672 23.0559 23.0783L26 20.3118V24C26 24.5523 26.4477 25 27 25C27.5523 25 28 24.5523 28 24V18.0022V18C28 17.8796 27.9787 17.7642 27.9397 17.6573C27.8947 17.5337 27.8245 17.4171 27.7288 17.3152C27.6212 17.2008 27.4932 17.1173 27.3556 17.0651C27.2698 17.0324 27.1783 17.0112 27.083 17.0034C27.052 17.0008 27.0209 16.9997 26.9898 17H21C20.4477 17 20 17.4477 20 18C20 18.5523 20.4477 19 21 19H24.4754L21.6752 21.6312C21.6676 21.6384 21.6601 21.6456 21.6527 21.653C20.6974 22.6088 19.5155 23.3071 18.2173 23.6826C16.9192 24.0581 15.547 24.0986 14.229 23.8004C13.5606 23.6491 12.9172 23.4133 12.3136 23.1005L23.1031 12.3111C23.2742 12.6401 23.4228 12.9817 23.5473 13.3335C23.7315 13.8542 24.3029 14.1269 24.8236 13.9427C25.3442 13.7584 25.617 13.187 25.4327 12.6664C25.207 12.0285 24.918 11.4177 24.5716 10.8425L27.6972 7.7169C28.0877 7.32638 28.0877 6.69321 27.6972 6.30269C27.3067 5.91216 26.6735 5.91216 26.283 6.30269L23.3596 9.22606C23.3594 9.22579 23.3591 9.22551 23.3589 9.22524ZM8.13756 22.1838L9.56427 20.7571C9.0939 20.1216 8.7185 19.4174 8.45272 18.6664C8.26848 18.1457 7.69705 17.873 7.1764 18.0572C6.65576 18.2415 6.38304 18.8129 6.56728 19.3335C6.9329 20.3667 7.46446 21.3289 8.13756 22.1838Z"/>
</svg>

<svg xmlns="http://www.w3.org/2000/svg" width="32" height="32" fill="none" viewBox="0 0 32 32">
  <g class="refresh-slash">
    <path  fill-rule="evenodd" d="M18.212 6.249a10 10 0 00-9.268 2.673L6 11.688V8a1 1 0 00-2 0v6a1 1 0 001 1h6a1 1 0 100-2H7.524l2.8-2.631a8 8 0 0110.431-.803l1.428-1.428a10 10 0 00-3.97-1.89zm5.147 2.976l-1.416 1.416-11.3 11.303-.002-.001-1.415 1.415v.001l-.939.94a1 1 0 101.414 1.414l1.144-1.143a9.998 9.998 0 0012.21-1.492L26 20.312V24a1 1 0 102 0v-6a.998.998 0 00-1.01-1H21a1 1 0 100 2h3.475l-2.8 2.631a8 8 0 01-9.362 1.47l10.79-10.79c.171.33.32.67.444 1.023a1 1 0 101.886-.668 10.002 10.002 0 00-.861-1.824l3.125-3.125a1 1 0 00-1.414-1.414L23.36 9.226h-.001zM8.138 22.184l1.426-1.427a8.001 8.001 0 01-1.111-2.09 1 1 0 00-1.886.666 10 10 0 001.57 2.85z" class="Subtract" clip-rule="evenodd"/>
  </g>
</svg>
